static/img/kroki/7ad8e56407d5db8cde983aa23b1de835.svg

<?xml version="1.0" encoding="us-ascii" standalone="no"?><svg xmlns="http://www.w3.org/2000/svg" xmlns:xlink="http://www.w3.org/1999/xlink" contentStyleType="text/css" height="152px" preserveAspectRatio="none" style="width:287px;height:152px;" version="1.1" viewBox="0 0 287 152" width="287px" zoomAndPan="magnify"><defs/><g><!--class azure_virtual_machine--><g id="elem_azure_virtual_machine"><rect codeLine="22" fill="#3D176E" height="39.7891" id="azure_virtual_machine" rx="2.5" ry="2.5" style="stroke:#000D19;stroke-width:0.5;" width="233" x="27" y="7"/><ellipse cx="42" cy="26.8945" fill="#ADD1B2" rx="11" ry="11" style="stroke:#181818;stroke-width:1.0;"/><path d="M44.9688,32.5352 Q44.3906,32.832 43.75,32.9727 Q43.1094,33.1289 42.4063,33.1289 Q39.9063,33.1289 38.5781,31.4883 Q37.2656,29.832 37.2656,26.707 Q37.2656,23.582 38.5781,21.9258 Q39.9063,20.2695 42.4063,20.2695 Q43.1094,20.2695 43.75,20.4258 Q44.4063,20.582 44.9688,20.8789 L44.9688,23.5977 Q44.3438,23.0195 43.75,22.7539 Q43.1563,22.4727 42.5313,22.4727 Q41.1875,22.4727 40.5,23.5508 Q39.8125,24.6133 39.8125,26.707 Q39.8125,28.8008 40.5,29.8789 Q41.1875,30.9414 42.5313,30.9414 Q43.1563,30.9414 43.75,30.6758 Q44.3438,30.3945 44.9688,29.8164 L44.9688,32.5352 Z " fill="#000000"/><text fill="#D9B8FF" font-family="Helvetica" font-size="17" lengthAdjust="spacing" textLength="191" x="61" y="32.7798">azure_virtual_machine</text></g><!--class azure_virtual_machine_size--><g id="elem_azure_virtual_machine_size"><rect codeLine="24" fill="#3D176E" height="39.7891" id="azure_virtual_machine_size" rx="2.5" ry="2.5" style="stroke:#000D19;stroke-width:0.5;" width="273" x="7" y="106.79"/><ellipse cx="22" cy="126.6845" fill="#ADD1B2" rx="11" ry="11" style="stroke:#181818;stroke-width:1.0;"/><path d="M24.9688,132.3252 Q24.3906,132.622 23.75,132.7627 Q23.1094,132.9189 22.4063,132.9189 Q19.9063,132.9189 18.5781,131.2783 Q17.2656,129.622 17.2656,126.497 Q17.2656,123.372 18.5781,121.7158 Q19.9063,120.0595 22.4063,120.0595 Q23.1094,120.0595 23.75,120.2158 Q24.4063,120.372 24.9688,120.6689 L24.9688,123.3877 Q24.3438,122.8095 23.75,122.5439 Q23.1563,122.2627 22.5313,122.2627 Q21.1875,122.2627 20.5,123.3408 Q19.8125,124.4033 19.8125,126.497 Q19.8125,128.5908 20.5,129.6689 Q21.1875,130.7314 22.5313,130.7314 Q23.1563,130.7314 23.75,130.4658 Q24.3438,130.1845 24.9688,129.6064 L24.9688,132.3252 Z " fill="#000000"/><text fill="#D9B8FF" font-family="Helvetica" font-size="17" lengthAdjust="spacing" textLength="231" x="41" y="132.5698">azure_virtual_machine_size</text></g><!--link azure_virtual_machine to azure_virtual_machine_size--><g id="link_azure_virtual_machine_azure_virtual_machine_size"><path codeLine="26" d="M143.5,47.22 C143.5,64.36 143.5,83.27 143.5,100.41 " fill="none" id="azure_virtual_machine-to-azure_virtual_machine_size" style="stroke:#1A83AF;stroke-width:2.0;"/><polygon fill="#1A83AF" points="143.5,106.41,147.5,97.41,143.5,101.41,139.5,97.41,143.5,106.41" style="stroke:#1A83AF;stroke-width:2.0;"/></g><!--SRC=[XP11JuD048Nl_HMRS6u24WKk9fIaqKjZh3TZo9ITBHjWbymkRLhZVrUicXLQUfttpRptffGS6JQjFR06cmsIcPbAgXO86fOIwNscQqtC4m9460t5fLRsAh221ja3rZkqie0XyLBAeb9e3Bjnf0KKrPPqf_Zfl2LGvaj2PHqggy6Or5gIcywY4uOdcrY88JayweKyYEvmX6dYI3-8x_iyI8R8LQl9td_4MXwH1UxJLjhYAER8ufkQJDaJJiXHqL_zOiOdu5ogBRjrPi-dJAIG_itN9N2zxsa1jN5jZ4L2RGyjPgDMcCHSH6VXnqjmqN-EmR4Zp7UIR0Trta1HIeNiVVOnfUUcVtOFdL-Vltf16eVfycr-Ft7X4m00]--></g></svg>

<svg xmlns="http://www.w3.org/2000/svg" width="287" height="152" viewBox="0 0 287 152"><rect width="233" height="39.789" x="27" y="7" fill="#3D176E" rx="2.5" ry="2.5" style="stroke:#000d19;stroke-width:.5"/><circle cx="42" cy="26.895" r="11" fill="#ADD1B2" style="stroke:#181818;stroke-width:1"/><path d="M44.969 32.535q-.578.297-1.219.438-.64.156-1.344.156-2.5 0-3.828-1.64-1.312-1.657-1.312-4.782t1.312-4.781q1.328-1.656 3.828-1.656.703 0 1.344.156.656.156 1.219.453v2.719q-.625-.578-1.219-.844-.594-.281-1.219-.281-1.343 0-2.031 1.078-.687 1.062-.687 3.156t.687 3.172q.688 1.062 2.031 1.062.625 0 1.219-.265.594-.281 1.219-.86z"/><text x="61" y="32.78" fill="#D9B8FF" font-family="Helvetica" font-size="17" textLength="191">azure_virtual_machine</text><rect width="273" height="39.789" x="7" y="106.79" fill="#3D176E" rx="2.5" ry="2.5" style="stroke:#000d19;stroke-width:.5"/><circle cx="22" cy="126.684" r="11" fill="#ADD1B2" style="stroke:#181818;stroke-width:1"/><path d="M24.969 132.325q-.578.297-1.219.438-.64.156-1.344.156-2.5 0-3.828-1.64-1.312-1.657-1.312-4.782t1.312-4.781q1.328-1.656 3.828-1.656.703 0 1.344.156.656.156 1.219.453v2.719q-.625-.579-1.219-.844-.594-.281-1.219-.281-1.343 0-2.031 1.078-.687 1.062-.687 3.156t.687 3.172q.688 1.062 2.031 1.062.625 0 1.219-.265.594-.281 1.219-.86z"/><text x="41" y="132.57" fill="#D9B8FF" font-family="Helvetica" font-size="17" textLength="231">azure_virtual_machine_size</text><path fill="none" d="M143.5 47.22v53.19" style="stroke:#1a83af;stroke-width:2"/><path fill="#1A83AF" d="m143.5 106.41 4-9-4 4-4-4z" style="stroke:#1a83af;stroke-width:2"/></svg>
